X: 247
T: The bashful maid
C: anon.
O: Ireland
B: Francis O'Neill: "The Dance Music of Ireland" (1907) no. 247
R: Double jig
Z: Transcribed by Frank Nordberg - http://www.musicaviva.com
F: http://www.musicaviva.com/abc/tunes/ireland/oneill-1001/oneill-1001-024
7.abc
M: 6/8
L: 1/8
K: D
A|FAA AFA|AFA d2B|GBB FAA|EFE E2A|FAA AFA|AFA d2B|ABc dcB|AFD D2:|
||d|ecA ABA|ecA d2A|GBB FAA|EFE E2d|ecA ABA|edc d2B|ABc ecB|AFD D2:|
W:
W:
W: From Musica Viva - http://www.musicaviva.com
W: the Internet center for free sheet music downloads.


